www/assets/icons/door_sliding.svg

<svg xmlns="http://www.w3.org/2000/svg" width="24" height="24" viewBox="0 0 24 24" fill='currentColor'><path d="M20 19V5c0-1.1-.9-2-2-2h-5.25v16h-1.5V3H6c-1.1 0-2 .9-2 2v14H3v2h18v-2zm-10-6H8v-2h2zm6 0h-2v-2h2z"/></svg>

<svg width="24" height="24" viewBox="0 0 24 24" xmlns="http://www.w3.org/2000/svg" fill='currentColor'><path d="M20 19V5C20 3.9 19.1 3 18 3H12.75V19H11.25V3H6C4.9 3 4 3.9 4 5V19H3V21H21V19H20ZM10 13H8V11H10V13ZM16 13H14V11H16V13Z"/></svg>
